X: 26
T: Shenmoren liuxia lan changgong
%%abc-version 2.0
%%abcx-abcm2ps-target-version 5.9.1 (29 Sep 2008)
%%abc-creator hum2abc beta
%%abcx-conversion-date 2013/10/02 07:52:29
%%abc-edited-by Helmut Schaffrath
%%humdrum-veritas 2057590128
%%humdrum-veritas-data 2900440259
%%continueall 1
%%barnumbers 0
L: 1/8
M: 2/4
K: Bb
f> f g c'/ c'/ [I:setbarnb 1]| 
g f d c | 
f2g b | 
c4 | 
f> f g c' | 
g f d c | 
B> d c G | 
F4 |]  



